app/assets/images/remix_icon/health/dossier-line.svg

<svg viewBox="0 0 24 24" xmlns="http://www.w3.org/2000/svg"><path d="M17 2V4H20C20.5523 4 21 4.44772 21 5V21C21 21.5523 20.5523 22 20 22H4C3.44772 22 3 21.5523 3 21V5C3 4.44772 3.44772 4 4 4H7V2H17ZM7 6H5V20H19V6H17V8H7V6ZM13 11V13H15V15H12.999L13 17H11L10.999 15H9V13H11V11H13ZM15 4H9V6H15V4Z"/></svg>

<svg xmlns="http://www.w3.org/2000/svg" viewBox="0 0 24 24">
    <g>
        <path fill="none" d="M0 0H24V24H0z"/>
        <path d="M17 2v2h3c.552 0 1 .448 1 1v16c0 .552-.448 1-1 1H4c-.552 0-1-.448-1-1V5c0-.552.448-1 1-1h3V2h10zM7 6H5v14h14V6h-2v2H7V6zm6 5v2h2v2h-2.001L13 17h-2l-.001-2H9v-2h2v-2h2zm2-7H9v2h6V4z"/>
    </g>
</svg>
